X:1751
T:Bonny Charlie
R:Hornpipe
O:England
M:4/4
N:King of the Fairies
A:Lancashire
B:Winder
K:Em
E2EF G2GA | BcBA G2GA | B2E2 E2G2 | FGAF D2D2 |\
E2EF G2GA | BcBA G2GA | B2E2 GFED | E4 e4 :|*
efed B2B2 | efed B4 | fgaf d2g2 | fgaf d2ga |\
b2gb a2fa | g2eg f2df | e2ef gfed | e2ef g4 | \
efed B2B2 | fgaf d4 | dcBA cBAG | FGAF D4 |\
GFGA BABd | edef g3e | dcBA BAGF | E4 e4 ||**


